X: 1
T: Accordion & Fiddles
R: g\aangl\aat, march
O: Sweden
Z: 2017 John Chambers <jc:trillian.mit.edu>
S: handwritten page of unknown origin, with "S-4" at upper right.
M: C
L: 1/8
K: G
"(D7)"D2 |\
"G"B3c B2A2 | G3A G2DB, | "C"C2E2 G2c2 | "Em"e2d2 c2B2 |\
"D7"A3B A2F2 | D3D F2A2 |1,3 "(G)"d3e "D7"d2c2 | "G"B4 G2 :|2,4 "(G)"dedB "D7"c2AF | "G"G4 G2 :|
|: c2 |\
"G"B2AG e2d2 | B2AG e2d2 | dedB G2e2 | d3e d2B2 |\
"D7"c2AF f2f2 | c2AF f2f2 | "(G)"dedB "D7"c2AF | "G"G4 G2 :|
